icons/mobile/24/svg/image-24.svg

<svg width="24" height="24" viewBox="0 0 24 24" fill="none" xmlns="http://www.w3.org/2000/svg">
<path d="M9.25391 10.6709C9.91982 9.77101 11.2696 9.77602 11.9297 10.6797L13.9043 13.3857L13.9873 13.2354C14.5763 12.1664 16.1098 12.156 16.7139 13.2158C16.9009 13.5438 16.999 13.915 16.999 14.293V15.1279C16.999 16.1619 16.16 17 15.124 17H8.875C7.839 17 7 16.1619 7 15.1279V14.5391C7 14.0051 7.17226 13.4847 7.48926 13.0557L9.25391 10.6709Z" fill="black"/>
<path d="M15.75 8.5C16.4404 8.5 17 9.05964 17 9.75C17 10.4404 16.4404 11 15.75 11C15.0596 11 14.5 10.4404 14.5 9.75C14.5 9.05964 15.0596 8.5 15.75 8.5Z" fill="black"/>
<path fill-rule="evenodd" clip-rule="evenodd" d="M12 3C13.8222 3 15.9503 3.11003 18.3047 3.44141C19.8461 3.65804 21 4.98331 21 6.54102V17.4619C21 18.9989 19.8809 20.3359 18.3359 20.5547C16.4697 20.8188 14.3422 21 12 21C10.1778 21 8.04975 20.89 5.69531 20.5586C4.15386 20.342 3 19.0167 3 17.459V6.53809C3 5.00109 4.11905 3.66415 5.66406 3.44531C7.53032 3.18118 9.65779 3 12 3ZM12 4.75C9.74821 4.75 7.70292 4.92484 5.90918 5.17871C5.25057 5.2722 4.75 5.84934 4.75 6.53809V17.459C4.75 18.1432 5.26009 18.7297 5.93848 18.8252C8.20193 19.1438 10.2483 19.25 12 19.25C14.2518 19.25 16.2971 19.0752 18.0908 18.8213C18.7494 18.7278 19.25 18.1507 19.25 17.4619V6.54102C19.25 5.85684 18.7399 5.27032 18.0615 5.1748C15.7981 4.85622 13.7517 4.75 12 4.75Z" fill="black"/>
</svg>

<!-- This Source Code Form is subject to the terms of the Mozilla Public
   - License, v. 2.0. If a copy of the MPL was not distributed with this
   - file, You can obtain one at http://mozilla.org/MPL/2.0/. -->
<svg xmlns="http://www.w3.org/2000/svg" width="24" height="24" fill="none" viewBox="0 0 24 24">
    <path fill="#000" d="M9.254 10.67a1.66 1.66 0 0 1 2.676.01l1.974 2.706.083-.15c.59-1.07 2.123-1.08 2.727-.02.187.328.285.699.285 1.077v.835A1.873 1.873 0 0 1 15.124 17H8.875A1.873 1.873 0 0 1 7 15.128v-.589c0-.534.172-1.054.49-1.483zM15.75 8.5a1.25 1.25 0 1 1 0 2.5 1.25 1.25 0 0 1 0-2.5" />
    <path fill="#000" fill-rule="evenodd" d="M12 3c1.822 0 3.95.11 6.305.441A3.136 3.136 0 0 1 21 6.541v10.92c0 1.538-1.12 2.875-2.664 3.094a45.2 45.2 0 0 1-12.64.004A3.136 3.136 0 0 1 3 17.459V6.539C3 5 4.119 3.663 5.664 3.444A45 45 0 0 1 12 3m0 1.75a43.5 43.5 0 0 0-6.09.429c-.66.093-1.16.67-1.16 1.36v10.92c0 .684.51 1.27 1.188 1.366a43.5 43.5 0 0 0 12.153-.004 1.365 1.365 0 0 0 1.159-1.36V6.542c0-.684-.51-1.27-1.189-1.366A43.5 43.5 0 0 0 12 4.75" clip-rule="evenodd" />
</svg>
